src/public/img/landing/new/external-websites/ubisoft.svg

<svg width="89" height="28" viewBox="0 0 89 28" fill="none" xmlns="http://www.w3.org/2000/svg">
<g clip-path="url(#clip0_3628_19505)">
<path d="M27.6333 14.0012C27.3671 -0.353249 8.29456 -5.6697 0.931656 7.71004C1.2865 7.97587 1.73004 8.3303 1.99617 8.50751C1.46391 9.65941 1.02037 10.8999 0.842947 12.0518C0.754237 12.8493 0.665527 13.6468 0.665527 14.5328C0.665527 21.9759 6.69779 28.0012 14.1494 28.0012C21.601 28.0012 27.6333 21.9759 27.6333 14.5328C27.6333 14.3556 27.6333 14.1784 27.6333 14.0012ZM4.0365 16.3936C3.85908 17.8113 3.94779 18.343 3.94779 18.5202L3.59295 18.6088C3.50424 18.343 3.1494 17.5455 3.06069 16.3936C2.70585 12.0518 5.63327 8.15308 10.1575 7.44422C14.3268 6.82397 18.23 9.39359 19.2059 13.0265L18.851 13.1151C18.7623 13.0265 18.5849 12.7607 17.9639 12.0518C12.9962 7.00118 5.10101 9.30498 4.0365 16.3936ZM16.8107 18.786C16.101 19.7607 15.0365 20.3809 13.7946 20.3809C11.7542 20.3809 10.0688 18.6974 10.0688 16.6594C10.0688 14.71 11.5768 13.1151 13.5284 13.0265C14.6817 12.9379 15.8349 13.6468 16.3671 14.6214C16.8994 15.7733 16.722 17.1024 15.8349 18.0771C16.1897 18.343 16.5446 18.6088 16.8107 18.786ZM24.5284 18.9632C22.5768 23.3936 18.5849 25.6974 14.3268 25.6088C6.07682 25.1657 3.68166 15.7733 9.18166 12.3176L9.44779 12.5835C9.35908 12.6721 9.00424 12.9379 8.56069 14.0012C7.93972 15.2417 7.7623 16.3936 7.85101 17.1911C8.29456 23.8366 17.5204 25.1657 20.7139 18.6088C24.7059 9.5708 13.972 0.44422 4.39133 7.44422L4.21391 7.1784C6.69779 3.27966 11.5768 1.50751 16.2784 2.65941C23.4639 4.52017 27.3671 11.9632 24.5284 18.9632Z" fill="black"/>
<path d="M40.7622 8.68354V14.8861C40.7622 17.3671 39.2542 19.2278 36.5042 19.2278C33.7542 19.2278 32.2461 17.3671 32.2461 14.8861V8.68354H34.4638V14.7089C34.4638 16.2152 35.1735 17.1013 36.5042 17.1013C37.8348 17.1013 38.5445 16.2152 38.5445 14.7089V8.68354H40.7622ZM49.1896 16.1266C49.1896 17.8987 47.7703 19.2278 45.4638 19.2278H41.8267V8.77214H45.2864C47.3267 8.77214 48.6574 9.74683 48.6574 11.2532C48.6574 12.4051 48.1251 13.1139 47.3267 13.4683C48.3913 13.9114 49.1896 14.7089 49.1896 16.1266ZM44.1332 10.8101V13.0253H45.2864C45.9961 13.0253 46.4396 12.5823 46.4396 11.962C46.4396 11.3418 45.9961 10.8987 45.2864 10.8987L44.1332 10.8101ZM45.3751 17.1899C46.3509 17.1899 46.8832 16.7468 46.8832 15.8608C46.8832 14.9747 46.3509 14.5316 45.3751 14.5316H44.1332V17.1013L45.3751 17.1899ZM50.0767 8.77214H52.2945V19.1392H50.0767V8.77214ZM57.7058 13.0253C59.48 13.6456 60.3671 14.443 60.3671 16.038C60.3671 18.1646 58.6816 19.4051 56.73 19.4051C54.9558 19.4051 53.5364 18.6076 53.0042 17.1013L54.7784 15.7721C55.1332 16.7468 55.9316 17.2785 56.8187 17.2785C57.5284 17.2785 58.0606 16.8354 58.0606 16.2152C58.0606 15.5949 57.6171 15.2405 56.1977 14.7089C54.6009 14.0886 53.359 13.2911 53.359 11.6076C53.359 9.92404 54.7784 8.68354 56.73 8.68354C58.3267 8.68354 59.5687 9.30379 60.1009 10.5443L58.3267 11.7848C57.9719 10.9873 57.4396 10.5443 56.6413 10.5443C55.9316 10.5443 55.488 10.8987 55.488 11.4304C55.5767 12.0506 56.1977 12.4937 57.7058 13.0253ZM71.6332 14C71.6332 17.0127 69.4154 19.3164 66.3106 19.3164C63.1171 19.3164 60.988 17.0127 60.988 14.3544C60.988 12.5823 61.6977 11.2532 62.6735 10.4557L62.3187 10.1013C63.1171 9.30379 64.5364 8.68354 66.2219 8.68354C69.4154 8.59493 71.6332 10.9873 71.6332 14ZM69.3267 14C69.3267 12.1392 68.1735 10.8101 66.3106 10.8101C65.2461 10.8101 64.4477 11.2532 64.0042 11.6962L64.359 12.0506C63.8267 12.4937 63.2945 13.1139 63.2945 14.2658C63.2945 15.8608 64.4477 17.1899 66.3106 17.1899C68.1735 17.1899 69.3267 15.8608 69.3267 14ZM74.8267 10.9873V13.3797H79.2622V15.0633H74.8267V19.1392H72.5203V8.77214H79.6171V10.8987H74.8267V10.9873ZM88.6654 10.9873H85.738V19.2278H83.5203V10.9873H80.5042V8.77214H88.5767V10.9873H88.6654Z" fill="black"/>
</g>
<defs>
<clipPath id="clip0_3628_19505">
<rect width="88" height="28" fill="white" transform="translate(0.665527)"/>
</clipPath>
</defs>
</svg>

<svg xmlns="http://www.w3.org/2000/svg" width="89" height="28" fill="none">
  <g fill="#000" clip-path="url(#a)">
    <path d="M27.633 14.001C27.367-.353 8.295-5.669.932 7.71c.354.266.798.62 1.064.798C1.464 9.659 1.02 10.9.843 12.052c-.089.797-.177 1.595-.177 2.48 0 7.444 6.032 13.47 13.483 13.47 7.452 0 13.484-6.026 13.484-13.47v-.53ZM4.037 16.394c-.178 1.417-.09 1.949-.09 2.126l-.354.089c-.089-.266-.444-1.064-.532-2.215-.355-4.342 2.572-8.24 7.097-8.95 4.169-.62 8.072 1.95 9.048 5.583l-.355.088c-.089-.088-.266-.354-.887-1.063C12.996 7.002 5.1 9.305 4.037 16.394Zm12.774 2.392c-.71.975-1.774 1.595-3.016 1.595-2.04 0-3.726-1.684-3.726-3.722a3.617 3.617 0 0 1 3.46-3.632c1.153-.09 2.306.62 2.838 1.594a3.118 3.118 0 0 1-.532 3.456c.355.266.71.532.976.709Zm7.717.177c-1.951 4.43-5.943 6.734-10.201 6.646-8.25-.443-10.645-9.836-5.145-13.291l.266.266c-.089.088-.444.354-.887 1.417-.621 1.24-.799 2.393-.71 3.19.444 6.646 9.67 7.975 12.863 1.418C24.706 9.57 13.972.444 4.39 7.444l-.177-.266c2.484-3.898 7.363-5.67 12.064-4.519 7.186 1.861 11.09 9.304 8.25 16.304ZM40.762 8.684v6.202c0 2.481-1.508 4.342-4.258 4.342s-4.258-1.86-4.258-4.342V8.684h2.218v6.025c0 1.506.71 2.392 2.04 2.392s2.04-.886 2.04-2.392V8.684h2.218Zm8.428 7.443c0 1.772-1.42 3.1-3.726 3.1h-3.637V8.773h3.46c2.04 0 3.37.975 3.37 2.481 0 1.152-.532 1.86-1.33 2.215 1.064.443 1.863 1.24 1.863 2.659Zm-5.057-5.317v2.215h1.153c.71 0 1.154-.443 1.154-1.063 0-.62-.444-1.063-1.154-1.063l-1.153-.089Zm1.242 6.38c.976 0 1.508-.443 1.508-1.33 0-.885-.532-1.328-1.508-1.328h-1.242v2.57l1.242.088Zm4.702-8.418h2.218V19.14h-2.218V8.772Zm7.629 4.253c1.774.62 2.661 1.418 2.661 3.013 0 2.127-1.685 3.367-3.637 3.367-1.774 0-3.194-.797-3.726-2.304l1.774-1.329c.355.975 1.154 1.507 2.04 1.507.71 0 1.243-.444 1.243-1.064 0-.62-.444-.974-1.863-1.506-1.597-.62-2.839-1.418-2.839-3.101 0-1.684 1.42-2.924 3.371-2.924 1.597 0 2.839.62 3.37 1.86l-1.773 1.24c-.355-.797-.887-1.24-1.686-1.24-.71 0-1.153.355-1.153.886.089.62.71 1.064 2.218 1.595ZM71.633 14c0 3.013-2.218 5.316-5.322 5.316-3.194 0-5.323-2.303-5.323-4.962 0-1.772.71-3.1 1.685-3.898l-.354-.355c.798-.797 2.217-1.417 3.903-1.417 3.193-.09 5.411 2.303 5.411 5.316Zm-2.306 0c0-1.86-1.153-3.19-3.016-3.19-1.065 0-1.863.443-2.307.886l.355.355c-.532.443-1.064 1.063-1.064 2.215 0 1.595 1.153 2.924 3.016 2.924 1.862 0 3.016-1.33 3.016-3.19Zm5.5-3.013v2.393h4.435v1.683h-4.435v4.076H72.52V8.772h7.097V10.9h-4.79v.088Zm13.838 0h-2.927v8.24H83.52v-8.24h-3.016V8.772h8.073v2.215h.088Z"/>
  </g>
  <defs>
    <clipPath id="a">
      <path fill="#fff" d="M.666 0h88v28h-88z"/>
    </clipPath>
  </defs>
</svg>
